!!!COM:	Anonymous
!!!OTL:	Textless piece &agrave; 3
!!!AGN:	Song; Chanson
!!!SCT:	Ano3005
!!!SCA:	Ano3005
!!!SMS:	Verona 757
!!!folio:	31v-32r
!!!voices:	3
**kern	**kern	**kern
*staff3	*staff2	*staff1
*Ivox	*Ivox	*Ivox
*I"Bassus	*I"Tenor	*I"Superius
*I'B	*I'T	*I'S
*clefF4	*clefGv2	*clefG2
*k[b-e-]	*k[b-]	*k[b-]
*M2/1	*M2/1	*M2/1
*met(C|)	*met(C|)	*met(C|)
=1-	=1-	=1-
0GG	0G	1.g
.	.	4f
.	.	4e
=2	=2	=2
1D	1A	1f
[1E-	[1G	[1g
=3	=3	=3
2E-]	2G]	2g]
4D	1B-	4f
4C	.	4e
2BB-	.	2d
[2AA	[2c	[2e
=4	=4	=4
2AA]	2c]	4e]
.	.	4d
2GG	2B-	1g
1D	1A	.
.	.	2f#i
=5	=5	=5
0GG	0G	1g
.	.	1r
=6	=6	=6
1D	1F	1a
[1GG	[1G	2g
.	.	[2b-
=7	=7	=7
1GG]	2G]	2b-]
.	4F	4a
.	4E	4g
2r	2D	2f
[2C	[2E	[2g
=8	=8	=8
2C]	4E]	4g]
.	4D	4f
2GG	1G	1b-
1D	.	.
.	2F	2a
=9	=9	=9
1E-	2.G	1g
.	4A	.
2D	2B-	2f
[2C	[2c	[2e
=10	=10	=10
4C]	4c]	4e]
4D	4B-	4d
2E-	4A	1g
.	4G	.
1D	1A	.
.	.	2f#i
=11	=11	=11
3%2.GGV	0G	3%2.gV
3AA	.	3f
3BB-	.	3%2eZ
3CZ	.	.
=12	=12	=12
3%4DV	0r	3%2.fV
.	.	3e
3%2DZ	.	3%2fZ
=13	=13	=13
3%2.E-V	3%2.GV	3%4gV
3F	3F	.
3%2GZ	3%2EZ	3%2gZ
=14	=14	=14
3%4DV	3%2.FV	3%4aV
.	3E	.
3%2DZ	3%2FZ	3%2aZ
=15	=15	=15
3%2.E-V	3%4GV	3%4gV
3D	.	.
3C	3%2GZ	3%2gZ
3BB-Z	.	.
=16	=16	=16
3%2AAV	3%4AV	3%4ccV
3%2C	.	.
3%2DZ	3%2AZ	3%2aZ
=17	=17	=17
3%2.GGV	3%4GV	3%4b-V
3AA	.	.
3BB-	3%2GZ	3%2gZ
3CZ	.	.
=18	=18	=18
3%2AAV	3%4cV	3%4aV
3%4FFZ	.	.
.	3%2AZ	3%2aZ
=19	=19	=19
3%2GGV	3%4dV	3%4b-V
3%2BB-	.	.
3%2FFZ	3%2cZ	3%2aZ
=20	=20	=20
3%2GGV	3%2B-V	3%4gV
3%4DZ	3%4AZ	.
.	.	3%2f#iZ
=21	=21	=21
0GG	1G	1g
.	1G	1r
=22	=22	=22
1C	2r	1g
.	2E	.
1AA	1A	2r
.	.	2c
=23	=23	=23
1D	2r	1f
.	2F	.
1BB-	1B-	2r
.	.	2d
=24	=24	=24
1E-	2r	1g
.	2G	.
1C	1c	2r
.	.	2e
=25	=25	=25
1F	2r	1a
.	2A	.
1D	2.d	2r
.	.	2f
.	4c	.
=26	=26	=26
2G	2B-	2d
2E-	2G	1g
1D	1A	.
.	.	2f#i
=27	=27	=27
0GG	0G	1.g
.	.	4f
.	.	4e
=28	=28	=28
1D	1A	1f
[1E-	[1G	[1g
=29	=29	=29
2E-]	2G]	2g]
4D	1B-	4f
4C	.	4e
2BB-	.	2d
[2AA	[2c	2e
=30	=30	=30
2AA]	2c]	2d
2GG	2B-	1g
1D	1A	.
.	.	2f#i
=31	=31	=31
0GG	0G	1g
.	.	1r
=32	=32	=32
1D	1F	1a
[1GG	[1G	2g
.	.	[2b-
=33	=33	=33
1GG]	2G]	2b-]
.	4F	4a
.	4E	4g
2r	2D	2f
[2C	[2E	[2g
=34	=34	=34
2C]	4E]	4g]
.	4D	4f
2GG	1G	1b-
1D	.	.
.	2F	2a
=35	=35	=35
1E-	2.G	1g
.	4A	.
2D	2B-	2f
[2C	[2c	[2e
=36	=36	=36
4C]	4c]	4e]
4D	4B-	4d
2E-	4A	1g
.	4G	.
1D	1A	.
.	.	2f#i
=37	=37	=37
3%4GGV	3%4G	0g
3%2GGZ	3%2G	.
=38	=38	=38
3%4DV	3%4F	0r
3%2DZ	3%2F	.
=39	=39	=39
3%4GGV	3%4G	3%4gV
3%2DZ	3%2AZ	3%2fZ
=41	=41	=41
3%4E-V	3%4GV	3%4gV
3%2E-Z	3%2GZ	3%2gZ
=42	=42	=42
3%4FV	3%4cV	3%4aV
3%2FZ	3%2cZ	3%2aZ
=43	=43	=43
3%4GV	3%2B-V	3%4gV
.	3%4GZ	.
3%2E-Z	.	3%2gZ
=44	=44	=44
3%4CV	3%4AV	3%4ccV
3%2CZ	3%2AZ	3%2ccZ
=45	=45	=45
3%4GGV	3%4GV	3%2b-V
.	.	3%4gZ
3%2BB-Z	3%2GZ	.
=46	=46	=46
3%4AAV	3%4cV	3%4aV
3%2CZ	3%2cZ	3%2aZ
=47	=47	=47
3%4GGV	3%4dV	3%4b-V
3%2CZ	3%2cZ	3%2aZ
=48	=48	=48
3%2GGV	3%2B-V	3%4gV
3%4DZ	3%4AZ	.
.	.	3%2f#iZ
=49	=49	=49
0GG	0G	1g
.	.	1r
=50	=50	=50
1C	2r	1g
.	2E	.
2r	1A	1c
2AA	.	.
=51	=51	=51
1D	2r	1f
.	2F	.
2r	1B-	1d
2BB-	.	.
=52	=52	=52
1E-	2r	1g
.	2G	.
2r	1c	1e
2C	.	.
=53	=53	=53
1F	2r	1a
.	2A	.
2r	2.d	1f
2D	.	.
.	4c	.
=54	=54	=54
2G	2B-	2d
2E-	2G	1g
1D	1A	.
.	.	2f#i
=55	=55	=55
2r	0Gl	0gl
2GG	.	.
1GGl	.	.
==	==	==
*-	*-	*-
!!!RDF**kern: l=long note in original notation
!!!RDF**kern: i=editorial accidental
!!!RDF**kern: V=start of tuplet marker
!!!RDF**kern: Z=end of tuplet marker
!!!ENC:	Jesse Rodin 8/15/2013
!!!END:	2013/08/15/
!!!EED:	Jesse Rodin
!!!EEV:	2013/08/29/
!!!ONB:	Translated from MusicXML and edited on 2013/08/29/ by Craig Sapp
!!muse2ps: C^@{COM}\n@{SMS}, @{folio}^v85,85,150Q16
